X:1
T:Copeland, LM
T:Karl Pomery Harrington, 1905
T:Copeland, LM
T:Public Domain
C:Karl Pomery Harrington, 1905
Z:Public Domain
%%score ( 1 2 ) ( 3 4 )
L:1/8
M:4/4
K:G
V:1 treble 
V:2 treble 
V:3 bass 
V:4 bass 
V:1
 D | [DG]2 [DA]2 [DB]3 [GB] | [Gd]2 [Gc]2 [GB]2 [GB]2 | [GB]2 G2 [GB]3 [Gc] | [FB]2 [FA]2 G3 D | %5
 [EG]2 [EA]2 [^DB]3 [EB] | [^Ge]2 [Bd]2 [Ac]3 z | [Ec]2 [EB]>[EA] [Dd]2 [GB]2 | %8
 [EG]2 [FA]2 [B,G]3 |] %9
V:2
 D | x8 | x8 | x2 G2 x4 | x4 G3 D | x8 | x8 | x8 | x7 |] %9
V:3
 D, | [B,,G,]2 [D,F,]2 G,3 [G,D] | [B,=F]2 [CE]2 [G,D]2 [G,D]2 | [E,^C]2 [E,C]2 [D,D]3 [D,C] | %4
 [D,B,]2 [D,C]2 [G,B,]3 [G,B,] | [E,B,]2 [C,E,]2 [B,,F,]3 [E,^G,] | [E,B,]2 [^G,E]2 [A,E]3 z | %7
 [A,,A,]2 [B,,D]>[C,C] [D,B,]2 [D,D]2 | [D,C]2 [D,C]2 [G,,G,]3 |] %9
V:4
 D, | x4 G,3 x | x8 | x8 | x8 | x8 | x8 | x8 | x7 |] %9

